src/assets/outline/TextUnderline.svg

<?xml version="1.0" encoding="UTF-8"?>
<svg width="24" height="24" viewBox="0 0 24 24" xmlns="http://www.w3.org/2000/svg">
 <path d="m19 21.75h-14c-0.41 0-0.75-0.34-0.75-0.75s0.34-0.75 0.75-0.75h14c0.41 0 0.75 0.34 0.75 0.75s-0.34 0.75-0.75 0.75z"/>
 <path d="m12 17.75c-4.27 0-7.75-3.48-7.75-7.75v-7c0-0.41 0.34-0.75 0.75-0.75s0.75 0.34 0.75 0.75v7c0 3.45 2.8 6.25 6.25 6.25s6.25-2.8 6.25-6.25v-7c0-0.41 0.34-0.75 0.75-0.75s0.75 0.34 0.75 0.75v7c0 4.27-3.48 7.75-7.75 7.75z"/>
</svg>

<svg width="24" height="24" viewBox="0 0 24 24"  xmlns="http://www.w3.org/2000/svg">
<path d="M19 21.75H5C4.59 21.75 4.25 21.41 4.25 21C4.25 20.59 4.59 20.25 5 20.25H19C19.41 20.25 19.75 20.59 19.75 21C19.75 21.41 19.41 21.75 19 21.75Z" />
<path d="M12 17.75C7.73 17.75 4.25 14.27 4.25 10V3C4.25 2.59 4.59 2.25 5 2.25C5.41 2.25 5.75 2.59 5.75 3V10C5.75 13.45 8.55 16.25 12 16.25C15.45 16.25 18.25 13.45 18.25 10V3C18.25 2.59 18.59 2.25 19 2.25C19.41 2.25 19.75 2.59 19.75 3V10C19.75 14.27 16.27 17.75 12 17.75Z" />
</svg>
